Reedweeks/img/electric 1.svg

<svg width="24" height="24" viewBox="0 0 24 24" fill="none" xmlns="http://www.w3.org/2000/svg">
<path d="M7.50177 9.00467C7.46881 9.00467 7.43586 9.00009 7.40235 8.99112C7.20296 8.93638 7.08487 8.7304 7.13961 8.53064L9.39165 0.276639C9.44639 0.0765183 9.65256 -0.0408442 9.85249 0.0135344C10.0519 0.0682791 10.1702 0.274075 10.1154 0.474013L7.8632 8.72783C7.81797 8.89463 7.66674 9.00467 7.50177 9.00467Z" fill="#3B3943"/>
<path d="M16.505 9.00442C16.3402 9.00442 16.1888 8.89475 16.1434 8.72795L13.8913 0.47413C13.8366 0.274193 13.9547 0.0680306 14.1542 0.0136521C14.3547 -0.0403603 14.5603 0.076636 14.6151 0.276756L16.8671 8.53076C16.9219 8.73052 16.8038 8.93686 16.6042 8.99124C16.5709 8.99985 16.5379 9.00442 16.505 9.00442Z" fill="#3B3943"/>
<path d="M14.2531 0.750436H9.75339C9.54613 0.750436 9.37842 0.582357 9.37842 0.375462C9.37842 0.168384 9.54613 0.000488281 9.75339 0.000488281H14.2531C14.4605 0.000488281 14.628 0.168384 14.628 0.375462C14.628 0.582357 14.4605 0.750436 14.2531 0.750436Z" fill="#3B3943"/>
<path d="M16.503 9.00239H7.50364C7.29638 9.00239 7.12866 8.8345 7.12866 8.62742C7.12866 8.42052 7.29638 8.25244 7.50364 8.25244H16.503C16.7105 8.25244 16.878 8.42052 16.878 8.62742C16.878 8.8345 16.7105 9.00239 16.503 9.00239Z" fill="#3B3943"/>
<path d="M16.1272 23.9997H7.87851C7.67125 23.9997 7.50354 23.8322 7.50354 23.6247C7.50354 23.4175 7.67125 23.2498 7.87851 23.2498H16.1272C16.3347 23.2498 16.5022 23.4175 16.5022 23.6247C16.5022 23.8322 16.3347 23.9997 16.1272 23.9997Z" fill="#3B3943"/>
<path d="M8.62925 23.2494C8.42198 23.2494 8.25427 23.0819 8.25427 22.8744C8.25427 22.2543 8.75906 21.7495 9.37919 21.7495C9.58664 21.7495 9.75416 21.917 9.75416 22.1245C9.75416 22.3319 9.58664 22.4995 9.37919 22.4995C9.1723 22.4995 9.00422 22.6674 9.00422 22.8744C9.00422 23.0819 8.83669 23.2494 8.62925 23.2494Z" fill="#3B3943"/>
<path d="M15.3774 23.2494C15.1701 23.2494 15.0024 23.0819 15.0024 22.8744C15.0024 22.6674 14.8345 22.4995 14.6274 22.4995C14.4202 22.4995 14.2524 22.3319 14.2524 22.1245C14.2524 21.917 14.4202 21.7495 14.6274 21.7495C15.2477 21.7495 15.7523 22.2543 15.7523 22.8744C15.7523 23.0819 15.5848 23.2494 15.3774 23.2494Z" fill="#3B3943"/>
<path d="M14.6274 22.4995H9.37925C9.17199 22.4995 9.00427 22.3319 9.00427 22.1245C9.00427 21.917 9.17199 21.7495 9.37925 21.7495H14.6274C14.8348 21.7495 15.0024 21.917 15.0024 22.1245C15.0024 22.3319 14.8348 22.4995 14.6274 22.4995Z" fill="#3B3943"/>
<path d="M8.62925 23.9999C8.42199 23.9999 8.25427 23.8324 8.25427 23.6249V22.8742C8.25427 22.6668 8.42199 22.4993 8.62925 22.4993C8.83669 22.4993 9.00423 22.6668 9.00423 22.8742V23.6249C9.00423 23.8324 8.83669 23.9999 8.62925 23.9999Z" fill="#3B3943"/>
<path d="M15.3773 23.9999C15.17 23.9999 15.0023 23.8324 15.0023 23.6249V22.8742C15.0023 22.6668 15.17 22.4993 15.3773 22.4993C15.5847 22.4993 15.7523 22.6668 15.7523 22.8742V23.6249C15.7523 23.8324 15.5847 23.9999 15.3773 23.9999Z" fill="#3B3943"/>
<path d="M14.2531 12.375C14.0459 12.375 13.8782 12.2074 13.8782 12V8.62522C13.8782 8.41814 14.0459 8.25024 14.2531 8.25024C14.4606 8.25024 14.6281 8.41814 14.6281 8.62522V12C14.6281 12.2074 14.4606 12.375 14.2531 12.375Z" fill="#3B3943"/>
<path d="M12.7533 22.1249C12.546 22.1249 12.3783 21.9574 12.3783 21.7499C12.3783 21.543 12.2104 21.375 12.0033 21.375C11.7964 21.375 11.6284 21.543 11.6284 21.7499C11.6284 21.9574 11.4608 22.1249 11.2534 22.1249C11.0461 22.1249 10.8784 21.9574 10.8784 21.7499C10.8784 21.1298 11.3832 20.625 12.0033 20.625C12.6237 20.625 13.1283 21.1298 13.1283 21.7499C13.1283 21.9574 12.9607 22.1249 12.7533 22.1249Z" fill="#3B3943"/>
<path d="M12.0033 21.3751C11.796 21.3751 11.6283 21.2075 11.6283 21.0001V8.62888C11.6283 8.42199 11.796 8.25391 12.0033 8.25391C12.2107 8.25391 12.3782 8.42199 12.3782 8.62888V21.0001C12.3782 21.2075 12.2107 21.3751 12.0033 21.3751Z" fill="#3B3943"/>
<path d="M11.2534 22.4994C11.0461 22.4994 10.8784 22.3319 10.8784 22.1245V21.7502C10.8784 21.543 11.0461 21.3752 11.2534 21.3752C11.4608 21.3752 11.6284 21.543 11.6284 21.7502V22.1245C11.6284 22.3319 11.4608 22.4994 11.2534 22.4994Z" fill="#3B3943"/>
<path d="M12.7533 22.4994C12.546 22.4994 12.3783 22.3319 12.3783 22.1245V21.7502C12.3783 21.543 12.546 21.3752 12.7533 21.3752C12.9607 21.3752 13.1282 21.543 13.1282 21.7502V22.1245C13.1282 22.3319 12.9607 22.4994 12.7533 22.4994Z" fill="#3B3943"/>
</svg>

<svg width="24" height="24" fill="none" xmlns="http://www.w3.org/2000/svg"><path d="M7.502 9.005a.375.375 0 0 1-.362-.474L9.392.277a.375.375 0 0 1 .723.197L7.863 8.728a.375.375 0 0 1-.361.277ZM16.505 9.004a.375.375 0 0 1-.362-.276L13.891.474a.375.375 0 1 1 .724-.197l2.252 8.254a.375.375 0 0 1-.362.473Z" fill="#3B3943"/><path d="M14.253.75h-4.5a.375.375 0 0 1 0-.75h4.5a.375.375 0 1 1 0 .75ZM16.503 9.002h-9a.375.375 0 1 1 0-.75h9a.375.375 0 1 1 0 .75ZM16.127 24H7.88a.375.375 0 1 1 0-.75h8.248a.375.375 0 1 1 0 .75Z" fill="#3B3943"/><path d="M8.63 23.25a.375.375 0 0 1-.376-.376c0-.62.505-1.124 1.125-1.124a.375.375 0 1 1 0 .75.375.375 0 0 0-.375.374.375.375 0 0 1-.375.375ZM15.377 23.25a.375.375 0 0 1-.375-.376.375.375 0 0 0-.375-.374.375.375 0 1 1 0-.75c.62 0 1.125.504 1.125 1.124a.374.374 0 0 1-.375.375Z" fill="#3B3943"/><path d="M14.627 22.5H9.38a.375.375 0 1 1 0-.75h5.248a.375.375 0 1 1 0 .75ZM8.63 24a.375.375 0 0 1-.376-.375v-.75a.375.375 0 1 1 .75 0v.75A.375.375 0 0 1 8.63 24ZM15.377 24a.375.375 0 0 1-.375-.375v-.75a.375.375 0 1 1 .75 0v.75a.375.375 0 0 1-.375.375ZM14.253 12.375a.375.375 0 0 1-.375-.375V8.625a.375.375 0 1 1 .75 0V12a.375.375 0 0 1-.375.375Z" fill="#3B3943"/><path d="M12.753 22.125a.375.375 0 0 1-.375-.375.375.375 0 0 0-.75 0 .375.375 0 1 1-.75 0c0-.62.505-1.125 1.125-1.125s1.125.505 1.125 1.125a.375.375 0 0 1-.375.375Z" fill="#3B3943"/><path d="M12.003 21.375a.375.375 0 0 1-.375-.375V8.63a.375.375 0 0 1 .75 0V21a.375.375 0 0 1-.375.375ZM11.253 22.5a.375.375 0 0 1-.375-.375v-.375a.375.375 0 1 1 .75 0v.375a.375.375 0 0 1-.375.374ZM12.753 22.5a.375.375 0 0 1-.375-.375v-.375a.375.375 0 1 1 .75 0v.375a.374.374 0 0 1-.375.374Z" fill="#3B3943"/></svg>
